modules/hawcons-stroke/icons/cloud-snow.svg

<?xml version="1.0" encoding="UTF-8" standalone="no"?>
<svg width="32px" height="32px" viewBox="0 0 32 32" version="1.1" xmlns="http://www.w3.org/2000/svg" xmlns:xlink="http://www.w3.org/1999/xlink" xmlns:sketch="http://www.bohemiancoding.com/sketch/ns">
    <!-- Generator: Sketch 3.0.3 (7891) - http://www.bohemiancoding.com/sketch -->
    <title>icon 7 cloud snow</title>
    <desc>Created with Sketch.</desc>
    <defs></defs>
    <g id="Page-1" stroke="none" stroke-width="1" fill="none" fill-rule="evenodd" sketch:type="MSPage">
        <g id="icon-7-cloud-snow" sketch:type="MSArtboardGroup" fill="#929292">
            <path d="M7.10100919,15.1021544 C5.32460991,15.5117359 4,17.1046097 4,19 C4,21.209139 5.79793835,23 8.00281647,23 L24.9971835,23 C27.207878,23 29,21.2046438 29,19 C29,17.1225574 27.70144,15.5472159 25.9581226,15.1164746 L25.9581226,15.1164746 C25.9857342,14.9149284 26,14.7091302 26,14.5 C26,12.0147185 23.9852815,10 21.5,10 C20.2744589,10 19.1633432,10.489913 18.3518132,11.2845787 C17.3608691,9.33540592 15.336385,8 13,8 C9.68629134,8 7,10.6862913 7,14 C7,14.3764904 7.03467626,14.7448817 7.10100919,15.1021544 L7.10100919,15.1021544 L7.10100919,15.1021544 Z M26.9993494,14.4145295 C28.7676457,15.1852931 30,16.9483386 30,19 C30,21.7558048 27.7616745,24 25.0005601,24 L7.99943992,24 C5.23249418,24 3,21.7614237 3,19 C3,16.9491311 4.23965876,15.1816085 6.01189661,14.4115388 L6.01189661,14.4115388 C6.00400207,14.275367 6,14.1381509 6,14 C6,10.1340066 9.13400656,7 13,7 C15.2979469,7 17.3372745,8.10728055 18.6135384,9.81739735 C19.4525719,9.29909701 20.441357,9 21.5,9 C24.5090248,9 26.9536744,11.4163763 26.9993494,14.4145295 L26.9993494,14.4145295 L26.9993494,14.4145295 Z M10,26 C9.44771525,26 9,26.4438648 9,27 C9,27.5522847 9.44386482,28 10,28 C10.5522847,28 11,27.5561352 11,27 C11,26.4477153 10.5561352,26 10,26 L10,26 Z M13,29 C12.4477153,29 12,29.4438648 12,30 C12,30.5522847 12.4438648,31 13,31 C13.5522847,31 14,30.5561352 14,30 C14,29.4477153 13.5561352,29 13,29 L13,29 Z M17,26 C16.4477153,26 16,26.4438648 16,27 C16,27.5522847 16.4438648,28 17,28 C17.5522847,28 18,27.5561352 18,27 C18,26.4477153 17.5561352,26 17,26 L17,26 Z M20,29 C19.4477153,29 19,29.4438648 19,30 C19,30.5522847 19.4438648,31 20,31 C20.5522847,31 21,30.5561352 21,30 C21,29.4477153 20.5561352,29 20,29 L20,29 Z M23,26 C22.4477153,26 22,26.4438648 22,27 C22,27.5522847 22.4438648,28 23,28 C23.5522847,28 24,27.5561352 24,27 C24,26.4477153 23.5561352,26 23,26 L23,26 Z" id="cloud-snow" sketch:type="MSShapeGroup"></path>
        </g>
    </g>
</svg>

<svg width="32" height="32" xmlns="http://www.w3.org/2000/svg"><path d="M7.101 15.102A4.006 4.006 0 0 0 4 19c0 2.21 1.798 4 4.003 4h16.994A4.004 4.004 0 0 0 29 19a4.006 4.006 0 0 0-3.042-3.884 4.5 4.5 0 0 0-7.606-3.832 6 6 0 0 0-11.25 3.818H7.1zm19.898-.687C28.768 15.185 30 16.948 30 19c0 2.756-2.238 5-5 5H8c-2.768 0-5-2.239-5-5 0-2.05 1.24-3.818 3.012-4.588a7 7 0 0 1 12.602-4.594A5.5 5.5 0 0 1 27 14.414zM10 26c-.552 0-1 .444-1 1 0 .552.444 1 1 1 .552 0 1-.444 1-1 0-.552-.444-1-1-1zm3 3c-.552 0-1 .444-1 1 0 .552.444 1 1 1 .552 0 1-.444 1-1 0-.552-.444-1-1-1zm4-3c-.552 0-1 .444-1 1 0 .552.444 1 1 1 .552 0 1-.444 1-1 0-.552-.444-1-1-1zm3 3c-.552 0-1 .444-1 1 0 .552.444 1 1 1 .552 0 1-.444 1-1 0-.552-.444-1-1-1zm3-3c-.552 0-1 .444-1 1 0 .552.444 1 1 1 .552 0 1-.444 1-1 0-.552-.444-1-1-1z" fill="#929292" fill-rule="evenodd"/></svg>
